!! J.S. Bach, Die Kunst der Fuge; Fuga I in d minor; BWV 1080.
!! Encoded from "Bach; Die Kunst der Fuge", (Carl Czerny, ed.)
!! New York: C.F. Peters Co., pp.4-5; in four voices.
!! Performance duration: 3:33; performance tempo: 87.9 quarter-notes per minute.
!! (Davitt Moroney, harpsichord, "Bach, 'Die Kunst der Fuge'",
!! Harmonia Mundi No. HMC 1169.70)
**kern	**kern	**kern	**kern
*d:	*d:	*d:	*d:
*M2/2	*M2/2	*M2/2	*M2/2
*MM87.9	*MM87.9	*MM87.9	*MM87.9
=1	=1	=1	=1
1r	1r	2d	1r
.	.	2a	.
=2	=2	=2	=2
1r	1r	2f	1r
.	.	2d	.
=3	=3	=3	=3
1r	1r	2c#	1r
.	.	4d	.
.	.	4e	.
=4	=4	=4	=4
1r	1r	[2f	1r
.	.	8f]	.
.	.	8g	.
.	.	8f	.
.	.	8e	.
=5	=5	=5	=5
1r	1r	4d	2a
.	.	4e	.
.	.	4f	2dd
.	.	4g	.
=6	=6	=6	=6
1r	1r	4a	2cc
.	.	8A	.
.	.	8Bn	.
.	.	8c	2a
.	.	8A	.
.	.	[4f	.
=7	=7	=7	=7
1r	1r	8f]	2g#
.	.	8Bn	.
.	.	[4e	.
.	.	8e]	4a
.	.	8f	.
.	.	8e	4bn
.	.	8d	.
=8	=8	=8	=8
1r	1r	4e	[2cc
.	.	4f#	.
.	.	[2g	8cc]
.	.	.	8dd
.	.	.	8cc
.	.	.	8b-
=9	=9	=9	=9
2D	1r	4g]	8a
.	.	.	8d
.	.	4fn	2dd
2A	.	2e	.
.	.	.	4cc#
=10	=10	=10	=10
2F	1r	4.d	8dd
.	.	.	8a
.	.	.	[4ccn
.	.	8e	.
2D	.	4.f	8cc]
.	.	.	8a
.	.	.	[4b-
.	.	8d	.
=11	=11	=11	=11
2C#	1r	4.g	8b-]
.	.	.	8e
.	.	.	[2.a
.	.	8g	.
4D	.	8f	.
.	.	8e	.
4E	.	8d	.
.	.	8c#	.
=12	=12	=12	=12
[2F	1r	4d	8a]
.	.	.	4ccn
.	.	2g	.
.	.	.	8bn
8F]	.	.	[2cc
8G	.	.	.
8F	.	4c	.
8E	.	.	.
=13	=13	=13	=13
2D	2A	4.f	8cc]
.	.	.	8d
.	.	.	[4cc
.	.	8e	.
2r	2d	4.f	8cc]
.	.	.	8a
.	.	.	[4bn
.	.	8G#	.
=14	=14	=14	=14
4r	2c	2.e	4b]
8AA	.	.	8a
8BBn	.	.	8g#
8C	2A	.	2a
8AA	.	.	.
[4F	.	8d	.
.	.	8c	.
=15	=15	=15	=15
8F]	2G#	8d	2bn
8BBn	.	8f	.
[4E	.	8e	.
.	.	8d	.
8E]	4A	4c	4cc
8F	.	.	.
8E	4Bn	4r	4dd
8D	.	.	.
=16	=16	=16	=16
8E	2c	1r	8g
8G	.	.	8b-
8F#	.	.	[4a
8A	.	.	.
2G	8c	.	8a]
.	8d	.	8b-
.	8c	.	8a
.	8B-	.	[8g
=17	=17	=17	=17
2.D	[2A	1r	8g]
.	.	.	8e
.	.	.	8f
.	.	.	8d
.	8A]	.	[2b-
.	8F	.	.
8E	4G	.	.
8D	.	.	.
=18	=18	=18	=18
4E	[2c	1r	8b-]
.	.	.	8g
8F	.	.	4a
8E	.	.	.
4F#	8c]	.	[2dd
.	8a	.	.
8G	4Bn	.	.
8F#	.	.	.
=19	=19	=19	=19
4G#	[2e	1r	8dd]
.	.	.	8bn
8A	.	.	4cc
8G#	.	.	.
4A	8e]	.	[2ffn
.	8c#	.	.
8B-	4d	.	.
8A	.	.	.
=20	=20	=20	=20
4Bn	[2g	1r	8ff]
.	.	.	8dd
8c	.	.	4ee
8B	.	.	.
4c#	8g]	.	4a
.	8e	.	.
8d	4f	.	[4dd
8G#	.	.	.
=21	=21	=21	=21
[2A	4.e	1r	8dd]
.	.	.	8bn
.	.	.	4cc
.	8a	.	.
8A]	4.d	.	4f
8F	.	.	.
[4G	.	.	4b-
.	8e	.	.
=22	=22	=22	=22
8G]	4c#	1r	2a
8E	.	.	.
[4F	8d	.	.
.	8A	.	.
8F]	4.Bn	.	4d
8D	.	.	.
4E	.	.	[4g
.	8c#	.	.
=23	=23	=23	=23
[2D	4d	2d	8g]
.	.	.	8e
.	[2.A	.	8f
.	.	.	8dd
8D]	.	2a	[2e
8BBn	.	.	.
4C#	.	.	.
=24	=24	=24	=24
4.D	2A]	2f	8e]
.	.	.	8d
.	.	.	2a
8Cn	.	.	.
2BB-	2B-	2d	.
.	.	.	4g
=25	=25	=25	=25
4.AA	8r	2c#	2a
.	8E	.	.
.	[4A	.	.
8GG	.	.	.
8FF	8A]	4d	2r
8GG	8B-	.	.
8FF	8A	4e	.
8EE	8G	.	.
=26	=26	=26	=26
8DD	4A	[2f	1r
8FF	.	.	.
8EE	4Bn	.	.
8DD	.	.	.
4.AA	[2c	8f]	.
.	.	8g	.
.	.	8f	.
8FF	.	8e	.
=27	=27	=27	=27
4.BB-	8c]	4d	1r
.	8A	.	.
.	4B-	[4g	.
8GG	.	.	.
4.D	4A	8g]	.
.	.	8e	.
.	[4d	4f	.
8F	.	.	.
=28	=28	=28	=28
4.A	8d]	4e	1r
.	8Bn	.	.
.	4c	[4a	.
8AA	.	.	.
4EE	4B	8a]	.
.	.	8f#	.
4r	[4e	4g	.
=29	=29	=29	=29
2r	8e]	4.f#	2a
.	8A	.	.
.	[4d	.	.
.	.	8dd	.
2E	8d]	2g#	2ee
.	8d	.	.
.	8c	.	.
.	8Bn	.	.
=30	=30	=30	=30
2A	8c	4a	2cc
.	8d	.	.
.	[4e	8r	.
.	.	8A	.
[2F	8e]	4c	2a
.	8e	.	.
.	8d	4A	.
.	8c	.	.
=31	=31	=31	=31
8F]	2Bn	4d	2g#
8F	.	.	.
8E	.	4f	.
8D	.	.	.
8C	4c	4e	4a
8D	.	.	.
8C	4G#	4d	4bn
8BBn	.	.	.
=32	=32	=32	=32
2AA	8A	4c	[2cc
.	8Gn	.	.
.	8F#	2a	.
.	8E	.	.
2D	4F#	.	8cc]
.	.	.	8dd
.	[4G	4d	8cc
.	.	.	8b-
=33	=33	=33	=33
2C#	8G]	4e	4a
.	8G	.	.
.	8Fn	[4a	4r
.	8E	.	.
2AA	8F	8a]	4r
.	8E	8g	.
.	8D	8f	[4a
.	8C#	8e	.
=34	=34	=34	=34
2FF#	4D	[1d	8a]
.	.	.	8ccn
.	4r	.	8b-
.	.	.	8a
4GG	2r	.	8b-
.	.	.	8a
4AA	.	.	8g
.	.	.	8f#
=35	=35	=35	=35
[2BB-	1r	8d]	4.g
.	.	8d	.
.	.	[4g	.
.	.	.	8b-
8BB-]	.	8g]	4.e
8C	.	8g	.
8BB-	.	[4c	.
8AA	.	.	8f#
=36	=36	=36	=36
[2GG	1r	8c]	4.g
.	.	8A	.
.	.	4B-	.
.	.	.	8e
8GG]	.	[2A	4.c#
8EE	.	.	.
4FF	.	.	.
.	.	.	8a
=37	=37	=37	=37
[2BB-	1r	8A]	4.d
.	.	8F	.
.	.	4G	.
.	.	.	8f
8BB-]	.	[2c	4.e
8GG	.	.	.
4AA	.	.	.
.	.	.	8cc
=38	=38	=38	=38
[2D	1r	8c]	4.f
.	.	8A	.
.	.	4Bn	.
.	.	.	8a
8D]	.	[2e	4.g
8BBn	.	.	.
4C	.	.	.
.	.	.	8ee
=39	=39	=39	=39
[2F	1r	8e]	4.a
.	.	8c#	.
.	.	4d	.
.	.	.	8ccn
8F]	.	[2g	4.bn
8D	.	.	.
4E	.	.	.
.	.	.	8gg
=40	=40	=40	=40
4.AA	2E	8g]	2cc#
.	.	8a	.
.	.	4b-	.
8G	.	.	.
8F	2A	[2a	4dd
8E	.	.	.
8D	.	.	[4ee
8C#	.	.	.
=41	=41	=41	=41
4.D	2F	2a_	8ee]
.	.	.	8cc#
.	.	.	[4dd
8FF	.	.	.
2BB-	2D	8a]	4.dd]
.	.	8f	.
.	.	4g	.
.	.	.	8ee
=42	=42	=42	=42
[1AA	2C#	4.a	8ff
.	.	.	8ee
.	.	.	[4gg
.	.	8b-	.
.	4D	4a	8gg]
.	.	.	8ff
.	4E	[4g	8ee
.	.	.	8dd
=43	=43	=43	=43
4.AA]	[2F	4g]	8cc#
.	.	.	8a
.	.	8f	[4dd
8BB-	.	8d	.
8AA	8F]	4.a	8dd]
8GG	8G	.	8bn
4AA	8F	.	[4ccn
.	8E	8g	.
=44	=44	=44	=44
4.BB-	2.D	8f#	4cc]
.	.	8d	.
.	.	[4g	4b-
8GG	.	.	.
[2D	.	8g]	4a
.	.	8e	.
.	8A	[4fn	4r
.	8F	.	.
=45	=45	=45	=45
4D]	4.B-	8f]	1r
.	.	8d	.
2E	.	[4g	.
.	8G	.	.
.	4.c	8g]	.
.	.	8e	.
[4F	.	[4a	.
.	8A	.	.
=46	=46	=46	=46
4.F]	4d	8a]	1r
.	.	8f	.
.	4G	[4b-	.
8D	.	.	.
4.E	4c	8b-]	.
.	.	8g	.
.	4F	[4a	.
8C#	.	.	.
=47	=47	=47	=47
4.D	4B-	8a]	1r
.	.	8f	.
.	4E	2g	.
8BBn	.	.	.
8C#	2A	.	.
8AA	.	.	.
[4D	.	8f	.
.	.	8d	.
=48	=48	=48	=48
8D]	4E	2a	1r
8Cn	.	.	.
8BBn	[4A	.	.
8AA	.	.	.
2BB	8A]	[2dd	.
.	8G#	.	.
.	8F#	.	.
.	8G#	.	.
=49	=49	=49	=49
4AA	4.A	8dd]	2ee
.	.	8cc#	.
4r	.	8bn	.
.	8Gn	8cc#	.
2r	8Fn	8dd	2aa
.	8E	8a	.
.	8D	[4ee	.
.	8C#	.	.
=50	=50	=50	=50
1r	4D	8ee]	2ff
.	.	8a	.
.	8F	4dd	.
.	8D	.	.
.	4B-	8r	2dd
.	.	8f	.
.	8G	[4b-	.
.	8E	.	.
=51	=51	=51	=51
1r	4.A	8b-]	2cc#
.	.	8e	.
.	.	[4a	.
.	8f	.	.
.	4Bn	8a]	4dd
.	.	8g	.
.	4c#	8f	4ee
.	.	8e	.
=52	=52	=52	=52
1r	4d	8d	[2ff
.	.	8a	.
.	8Bn	8dd	.
.	8G	8bn	.
.	4c	8g	8ff]
.	.	8e	8gg
.	8A	[4cc	8ff
.	8F	.	8ee
=53	=53	=53	=53
1r	8B-	4cc]	4.dd
.	8d	.	.
.	[4g	4b-	.
.	.	.	8ee
.	8g]	2a	4cc#
.	8e	.	.
.	[4f	.	8dd
.	.	.	8ff
=54	=54	=54	=54
1r	8f]	4.g	[2b-
.	8f	.	.
.	8e	.	.
.	8d	8f	.
.	2c#	[2e	8b-]
.	.	.	8b-
.	.	.	8a
.	.	.	8g
=55	=55	=55	=55
1r	8d	4e]	2f
.	8cn	.	.
.	8B-	8d	.
.	8A	8c#	.
.	8G	4d	2b-
.	8A	.	.
.	8B-	[4g	.
.	8cn	.	.
=56	=56	=56	=56
2D	8d	4.g]	2.a
.	8A	.	.
.	[4d	.	.
.	.	8f	.
2A	8d]	4.e	.
.	8Bn	.	.
.	[4c#	.	[4ee
.	.	8e	.
=57	=57	=57	=57
2F	8c#]	2.a	8ee]
.	8e	.	8cc#
.	8A	.	8dd
.	8c#	.	8ee
2D	4d	.	8ff
.	.	.	8dd
.	8B-	8g	[4gg
.	8G	8b-	.
=58	=58	=58	=58
2C#	2E	[2a	8gg]
.	.	.	8ee
.	.	.	8aa
.	.	.	8gg
4D	4F	8a]	8ff
.	.	8g	8ee
4E	4G	8f	8dd
.	.	8e	8cc#
=59	=59	=59	=59
[2F	2A	2.d	8dd
.	.	.	8ccn
.	.	.	8b-
.	.	.	8a
8F]	4Bn	.	[2g
8G	.	.	.
8F	4c#	4e	.
8E	.	.	.
=60	=60	=60	=60
[2D	4d	4A	8g]
.	.	.	8e
.	4r	4r	8f
.	.	.	8d
8D]	4r	4r	[2a
8E-	.	.	.
8D	4F#	4e-	.
8C	.	.	.
=61	=61	=61	=61
[2BB-	8G	2d	8a]
.	8A	.	8f#
.	4B-	.	8g
.	.	.	8b-
8BB-]	4r	4r	[2cc
8C	.	.	.
8BB-	4c	4f#	.
8AA	.	.	.
=62	=62	=62	=62
2.GG	2d	8g	8cc]
.	.	8f#	8a
.	.	4g	8b-
.	.	.	8dd
.	8r	4r	4ee-
.	4G	.	.
4GG	.	[4b-	4dd
.	8Fn	.	.
=63	=63	=63	=63
[1AA	4E	8b-]	4cc#
.	.	8a	.
.	4r	8ff	[4aa
.	.	8dd	.
.	2r	4bn	8aa]
.	.	.	8dd
.	.	8ee	[4gg
.	.	8cc#	.
=64	=64	=64	=64
1AA_	4r	4a	8gg]
.	.	.	8cc#
.	8F	8dd	[4ff
.	8D	8a	.
.	4.G	4.b-	8ff]
.	.	.	8dd
.	.	.	[4ee
.	8C#	8g	.
=65	=65	=65	=65
2.AA]	4.F	4.a	8ee]
.	.	.	8cc#
.	.	.	[4dd
.	8D	8f	.
.	2A	4.e	8dd]
.	.	.	8bn
4AA	.	.	[4ccn
.	.	8g	.
=66	=66	=66	=66
4.BB-	4D	8f#	4cc]
.	.	8d	.
.	2d	[4g	4b-
8GG	.	.	.
[2D	.	8g]	4.a
.	.	8e	.
.	8A	4fn	.
.	8F	.	8a
=67	=67	=67	=67
8D]	[2B-	8f	8dd
8BB-	.	8dd	8ff
4C	.	4cc	8ee
.	.	.	8gg
[2F	8B-]	4.cc	8ff
.	8G#	.	8ee
.	4A	.	[4dd
.	.	8cc	.
=68	=68	=68	=68
8F]	[2d	8b-	8dd]
8D	.	8a	4ff
4E	.	4g#	.
.	.	.	8ee
[2A	8d]	4.a	8ff
.	8Bn	.	8dd
.	4c	.	[4ee
.	.	8e	.
=69	=69	=69	=69
8A]	[2f	4a	8ee]
8F	.	.	8dd
4G	.	4g	8cc
.	.	.	8bn
[2c	8f]	4.g	4.cc
.	8d	.	.
.	4e-	.	.
.	.	8cc	8aa
=70	=70	=70	=70
8c]	2d	4a	8gg
8A	.	.	8ff#
2B-	.	2g	8gg
.	.	.	8bb-
.	4en	.	4cc#
4r	4r	4r	4r
=71	=71	=71	=71
2r	2r	2r	2r
4A	4f	4a	4dd
4r	4r	4r	4r
=72	=72	=72	=72
2r	2r	2r	2r
2G#	[2f	2bn	[2dd
=73	=73	=73	=73
2.A	4f]	[2a	2dd_
.	8e	.	.
.	8d	.	.
.	4e	4.a]	8dd]
.	.	.	8bn
4AA	4r	.	4cc#
.	.	8g	.
=74	=74	=74	=74
[1D	2A	8f#	4.dd
.	.	8g	.
.	.	[4a	.
.	.	.	8ccn
.	2d	8a]	4.b-
.	.	8g	.
.	.	[4cc	.
.	.	.	8a
=75	=75	=75	=75
1D_	2B-	8cc]	2d
.	.	8f#	.
.	.	8g	.
.	.	8b-	.
.	2G	2e-	8r
.	.	.	8g
.	.	.	8a
.	.	.	[8cc
=76	=76	=76	=76
1D_	2F#	4d	8cc]
.	.	.	8b-
.	.	4A	8cc
.	.	.	[8ee-
.	4G	4B-	8ee-]
.	.	.	8dd
.	4A	4c	8ff#
.	.	.	[8aa
=77	=77	=77	=77
1D_	2B-	4d	8aa]
.	.	.	16gg
.	.	.	16aa
.	.	[4G	8bb-
.	.	.	8cc#
.	8B-	8G]	[2dd
.	8d	8b-	.
.	8c	8a	.
.	8B-	[8g	.
=78	=78	=78	=78
1D;]	1A;	8g]	1dd;]
.	.	8f#	.
.	.	8e	.
.	.	8g	.
.	.	2f#;	.
====	====	====	====
*-	*-	*-	*-
